flaticon/business/presentation-14.svg

<svg xmlns="http://www.w3.org/2000/svg" width="32" height="32" viewBox="0 0 24 24">
    <path d="M3.199219 6.398438L9.199219 6.398438C9.421875 6.398438 9.601562 6.222656 9.601562 6 9.601562 5.777344 9.421875 5.601562 9.199219 5.601562L3.199219 5.601562C2.980469 5.601562 2.800781 5.777344 2.800781 6 2.800781 6.222656 2.980469 6.398438 3.199219 6.398438zM3.199219 5.199219L6.800781 5.199219C7.019531 5.199219 7.199219 5.019531 7.199219 4.800781 7.199219 4.578125 7.019531 4.398438 6.800781 4.398438L3.199219 4.398438C2.980469 4.398438 2.800781 4.578125 2.800781 4.800781 2.800781 5.019531 2.980469 5.199219 3.199219 5.199219zM9.601562 7.199219C9.601562 6.980469 9.421875 6.800781 9.199219 6.800781L3.199219 6.800781C2.980469 6.800781 2.800781 6.980469 2.800781 7.199219 2.800781 7.421875 2.980469 7.601562 3.199219 7.601562L9.199219 7.601562C9.421875 7.601562 9.601562 7.421875 9.601562 7.199219zM9.601562 7.199219"/>
    <path d="M 24 1.601562 L 12.398438 1.601562 L 12.398438 0.398438 C 12.398438 0.179688 12.222656 0 12 0 C 11.777344 0 11.601562 0.179688 11.601562 0.398438 L 11.601562 1.601562 L 0 1.601562 L 0 18.398438 L 11.035156 18.398438 L 6.117188 23.316406 C 5.960938 23.472656 5.960938 23.726562 6.117188 23.882812 C 6.195312 23.960938 6.296875 24 6.398438 24 C 6.503906 24 6.605469 23.960938 6.683594 23.882812 L 11.601562 18.964844 L 11.601562 22.800781 C 11.601562 23.019531 11.777344 23.199219 12 23.199219 C 12.222656 23.199219 12.398438 23.019531 12.398438 22.800781 L 12.398438 18.964844 L 17.316406 23.882812 C 17.394531 23.960938 17.496094 24 17.601562 24 C 17.703125 24 17.804688 23.960938 17.882812 23.882812 C 18.039062 23.726562 18.039062 23.472656 17.882812 23.316406 L 12.964844 18.398438 L 24 18.398438 Z M 23.199219 17.601562 L 0.800781 17.601562 L 0.800781 2.398438 L 23.199219 2.398438 Z M 23.199219 17.601562"/>
    <path d="M 16.398438 8 L 18.234375 8 L 13.441406 12.792969 L 10.121094 9.476562 C 9.964844 9.320312 9.714844 9.320312 9.558594 9.476562 L 4.515625 14.515625 C 4.359375 14.671875 4.359375 14.925781 4.515625 15.082031 C 4.59375 15.160156 4.699219 15.199219 4.800781 15.199219 C 4.902344 15.199219 5.003906 15.160156 5.082031 15.082031 L 9.839844 10.324219 L 13.15625 13.644531 C 13.234375 13.722656 13.335938 13.761719 13.441406 13.761719 C 13.542969 13.761719 13.644531 13.722656 13.722656 13.644531 L 18.800781 8.566406 L 18.800781 10.398438 C 18.800781 10.621094 18.980469 10.800781 19.199219 10.800781 C 19.421875 10.800781 19.601562 10.621094 19.601562 10.398438 L 19.601562 7.601562 C 19.601562 7.546875 19.589844 7.496094 19.570312 7.445312 C 19.527344 7.347656 19.449219 7.269531 19.351562 7.230469 C 19.304688 7.210938 19.253906 7.199219 19.199219 7.199219 L 16.398438 7.199219 C 16.179688 7.199219 16 7.378906 16 7.601562 C 16 7.820312 16.179688 8 16.398438 8 Z M 16.398438 8"/>
</svg>

<svg xmlns="http://www.w3.org/2000/svg" width="32" height="32" viewBox="0 0 24 24">
    <path d="M3.2 6.398h6a.398.398 0 1 0 0-.796h-6a.398.398 0 1 0 0 .796zm0 0M3.2 5.2h3.6a.4.4 0 0 0 0-.802H3.2a.401.401 0 0 0 0 .801zm0 0M9.602 7.2a.401.401 0 0 0-.403-.4h-6a.4.4 0 0 0 0 .802h6c.223 0 .403-.18.403-.403zm0 0"/>
    <path d="M24 1.602H12.398V.398a.398.398 0 1 0-.796 0v1.204H0v16.796h11.035l-4.918 4.918a.4.4 0 0 0 .567.567l4.918-4.918V22.8a.398.398 0 1 0 .796 0v-3.836l4.918 4.918a.399.399 0 0 0 .567 0 .4.4 0 0 0 0-.567l-4.918-4.918H24zm-.8 16H.8V2.398h22.4zm0 0"/>
    <path d="M16.398 8h1.836l-4.793 4.793-3.32-3.316a.396.396 0 0 0-.562 0l-5.043 5.039a.4.4 0 0 0 .566.566l4.758-4.758 3.316 3.32a.399.399 0 0 0 .567 0L18.8 8.567v1.832a.401.401 0 1 0 .8 0V7.602A.406.406 0 0 0 19.2 7.2h-2.8a.401.401 0 0 0 0 .8zm0 0"/>
</svg>
